src/assets/images/arrow.svg

<svg width="20" height="20" viewBox="0 0 20 20" fill="none" xmlns="http://www.w3.org/2000/svg">
<path d="M9.99963 20.0001C4.47963 20.0001 -0.000365019 15.5201 -0.000365019 10.0001C-0.000365019 4.48006 4.47963 6.22272e-05 9.99963 6.22272e-05C15.5196 6.22272e-05 19.9996 4.48006 19.9996 10.0001C19.9996 15.5201 15.5196 20.0001 9.99963 20.0001ZM9.99963 2.00006C5.57963 2.00006 1.99963 5.58006 1.99963 10.0001C1.99963 14.4201 5.57963 18.0001 9.99963 18.0001C14.4196 18.0001 17.9996 14.4201 17.9996 10.0001C17.9996 5.58006 14.4196 2.00006 9.99963 2.00006ZM9.99963 11.0001H5.99963V9.00006H9.99963V6.00006L13.9996 10.0001L9.99963 14.0001V11.0001Z" fill="#888888"/>
</svg>

<svg width="20" height="20" fill="none" xmlns="http://www.w3.org/2000/svg"><path d="M10 20C4.48 20 0 15.52 0 10S4.48 0 10 0s10 4.48 10 10-4.48 10-10 10Zm0-18c-4.42 0-8 3.58-8 8s3.58 8 8 8 8-3.58 8-8-3.58-8-8-8Zm0 9H6V9h4V6l4 4-4 4v-3Z" fill="#888"/></svg>
